Simply black circles/scalable/emblems/emblem-shared.svg

<?xml version="1.0" encoding="UTF-8" standalone="no"?>
<!-- Created with Inkscape (http://www.inkscape.org/) -->

<svg
   xmlns:dc="http://purl.org/dc/elements/1.1/"
   xmlns:cc="http://creativecommons.org/ns#"
   xmlns:rdf="http://www.w3.org/1999/02/22-rdf-syntax-ns#"
   xmlns:svg="http://www.w3.org/2000/svg"
   xmlns="http://www.w3.org/2000/svg"
   xmlns:sodipodi="http://sodipodi.sourceforge.net/DTD/sodipodi-0.dtd"
   xmlns:inkscape="http://www.inkscape.org/namespaces/inkscape"
   id="svg2"
   width="24"
   height="24"
   version="1.0"
   sodipodi:docname="emblem-shared.svg"
   inkscape:version="0.92.3 (2405546, 2018-03-11)">
  <metadata
     id="metadata25">
    <rdf:RDF>
      <cc:Work
         rdf:about="">
        <dc:format>image/svg+xml</dc:format>
        <dc:type
           rdf:resource="http://purl.org/dc/dcmitype/StillImage" />
        <dc:title></dc:title>
      </cc:Work>
    </rdf:RDF>
  </metadata>
  <sodipodi:namedview
     pagecolor="#ffffff"
     bordercolor="#666666"
     borderopacity="1"
     objecttolerance="10"
     gridtolerance="10"
     guidetolerance="10"
     inkscape:pageopacity="0"
     inkscape:pageshadow="2"
     inkscape:window-width="1366"
     inkscape:window-height="719"
     id="namedview23"
     showgrid="false"
     inkscape:zoom="22.166667"
     inkscape:cx="12"
     inkscape:cy="12"
     inkscape:window-x="0"
     inkscape:window-y="25"
     inkscape:window-maximized="1"
     inkscape:current-layer="svg2" />
  <defs
     id="defs4">
    <linearGradient
       id="linearGradient2407"
       x1="63.397"
       x2="63.397"
       y1="-12.489"
       y2="5.4676"
       gradientTransform="matrix(1.0863 0 0 1.0862 -55.567 15.814)"
       gradientUnits="userSpaceOnUse">
      <stop
         id="stop4875"
         style="stop-color:#fff"
         offset="0" />
      <stop
         id="stop4877"
         style="stop-color:#fff;stop-opacity:0"
         offset="1" />
    </linearGradient>
    <radialGradient
       id="radialGradient2410"
       cx="23.896"
       cy="3.99"
       r="20.397"
       gradientTransform="matrix(0,1.2316,-1.6257,0,-1.513,-28.721)"
       gradientUnits="userSpaceOnUse">
      <stop
         id="stop3244"
         style="stop-color:#f8b17e"
         offset="0" />
      <stop
         id="stop3246"
         style="stop-color:#e35d4f"
         offset=".26238" />
      <stop
         id="stop3248"
         style="stop-color:#c6262e"
         offset=".66094" />
      <stop
         id="stop3250"
         style="stop-color:#690b54"
         offset="1" />
    </radialGradient>
    <linearGradient
       id="linearGradient2412"
       x1="18.379"
       x2="18.379"
       y1="44.98"
       y2="3.0816"
       gradientTransform="matrix(0.51604,0,0,0.51604,-20.38499,-0.38499)"
       gradientUnits="userSpaceOnUse">
      <stop
         id="stop2492"
         style="stop-color:#791235"
         offset="0" />
      <stop
         id="stop2494"
         style="stop-color:#dd3b27"
         offset="1" />
    </linearGradient>
    <radialGradient
       id="radialGradient2415"
       cx="62.625"
       cy="4.625"
       r="10.625"
       gradientTransform="matrix(1.1294 0 0 .28235 -58.729 19.694)"
       gradientUnits="userSpaceOnUse">
      <stop
         id="stop8840"
         offset="0" />
      <stop
         id="stop8842"
         style="stop-opacity:0"
         offset="1" />
    </radialGradient>
  </defs>
  <path
     style="fill:#373748;fill-opacity:1;stroke:none;stroke-width:1.00370002;stroke-linecap:round;stroke-linejoin:round"
     d="m 12,1.5018 c -5.7926,0 -10.498,4.7057 -10.498,10.498 0,5.7926 4.7057,10.498 10.498,10.498 5.7926,0 10.498,-4.7057 10.498,-10.498 C 22.498,6.2072 17.7923,1.5018 12,1.5018 Z"
     id="path2555"
     inkscape:connector-curvature="0" />
  <path
     id="path4"
     d="M 15.597034,5.487686 A 2.455965,2.455965 0 0 0 13.585967,6.7132739 2.455965,2.455965 0 0 0 13.348524,8.5972453 L 10.097502,10.4752 A 2.455965,2.455965 0 0 0 8.3451713,9.739024 2.455965,2.455965 0 0 0 5.889206,12.194988 2.455965,2.455965 0 0 0 8.3451713,14.650954 2.455965,2.455965 0 0 0 10.096028,13.914656 l 3.251022,1.877953 a 2.455965,2.455965 0 0 0 0.238229,1.883725 2.455965,2.455965 0 0 0 3.355462,0.899498 2.455965,2.455965 0 0 0 0.899497,-3.355463 2.455965,2.455965 0 0 0 -3.355462,-0.898269 2.455965,2.455965 0 0 0 -0.524348,0.406462 L 10.70873,12.85159 a 2.455965,2.455965 0 0 0 0.0921,-0.656971 2.455965,2.455965 0 0 0 -0.08964,-0.65697 L 13.962208,9.6609237 A 2.455965,2.455965 0 0 0 14.484715,10.067387 2.455965,2.455965 0 0 0 17.840177,9.1691167 2.455965,2.455965 0 0 0 16.94068,5.813654 2.455965,2.455965 0 0 0 15.596653,5.4876246 Z"
     style="fill:#ffffff;stroke-width:0.61399126"
     inkscape:connector-curvature="0" />
</svg>

<svg xmlns="http://www.w3.org/2000/svg" width="24" height="24" version="1"><path d="M12 1.502C6.207 1.502 1.502 6.208 1.502 12c0 5.792 4.706 10.498 10.498 10.498 5.793 0 10.498-4.706 10.498-10.498 0-5.793-4.706-10.498-10.498-10.498z" fill="#373748"/><path d="M15.597 5.488a2.456 2.456 0 0 0-2.011 1.225 2.456 2.456 0 0 0-.237 1.884l-3.251 1.878a2.456 2.456 0 0 0-1.753-.736 2.456 2.456 0 0 0-2.456 2.456 2.456 2.456 0 0 0 2.456 2.456 2.456 2.456 0 0 0 1.751-.736l3.251 1.878a2.456 2.456 0 0 0 .238 1.883 2.456 2.456 0 0 0 3.356.9 2.456 2.456 0 0 0 .9-3.356 2.456 2.456 0 0 0-3.356-.898 2.456 2.456 0 0 0-.525.407l-3.251-1.877a2.456 2.456 0 0 0 .092-.657 2.456 2.456 0 0 0-.09-.657l3.251-1.877a2.456 2.456 0 0 0 .523.406 2.456 2.456 0 0 0 3.355-.898 2.456 2.456 0 0 0-.9-3.355 2.456 2.456 0 0 0-1.343-.326z" fill="#fff"/></svg>
